src/main/resources/icons/AllIcons/actions/swapPanels_dark.svg

<!-- Copyright 2000-2021 JetBrains s.r.o. Use of this source code is governed by the Apache 2.0 license that can be found in the LICENSE file. -->
<svg xmlns="http://www.w3.org/2000/svg" width="16" height="16" viewBox="0 0 16 16">
  <g fill="none" fill-rule="evenodd">
    <path fill="#AFB1B3" d="M2 6L6 6 6 10 2 10 2 6zM3 7L3 9 5 9 5 7 3 7zM10 6L14 6 14 10 10 10 10 6zM11 7L11 9 13 9 13 7 11 7z"/>
    <path fill="#AFB1B3" d="M3.08355828,15.3584902 L3.04061597,15.3584902 L3.04061597,11.1743889 L4.42008602,12.5538301 C5.3309178,11.5966356 6.61717583,11 8.04278474,11 C10.5872696,11 12.6878304,12.9006761 13.0021688,15.3597218 L11.4838618,15.3597218 C11.1819841,13.7338101 9.75616032,12.5026584 8.04278474,12.5026584 C7.03206436,12.5026584 6.12140684,12.9310772 5.48250276,13.6162246 L7.2248048,15.3584902 L4.60193651,15.3584902 C4.60186016,15.3589007 4.60178387,15.3593113 4.60170764,15.3597218 L3.08340071,15.3597218 C3.08345318,15.3593113 3.08350571,15.3589007 3.08355829,15.3584902 Z" transform="rotate(180 8.021 13.18)"/>
    <path fill="#AFB1B3" d="M3.08355828,4.85849024 L3.04061597,4.85849024 L3.04061597,0.674388872 L4.42008602,2.05383009 C5.3309178,1.09663562 6.61717583,0.5 8.04278474,0.5 C10.5872696,0.5 12.6878304,2.40067606 13.0021688,4.8597218 L11.4838618,4.8597218 C11.1819841,3.23381015 9.75616032,2.00265838 8.04278474,2.00265838 C7.03206436,2.00265838 6.12140684,2.43107715 5.48250276,3.11622463 L7.2248048,4.85849024 L4.60193651,4.85849024 C4.60186016,4.85890074 4.60178387,4.85931126 4.60170764,4.8597218 L3.08340071,4.8597218 C3.08345318,4.85931127 3.08350571,4.85890075 3.08355829,4.85849024 Z"/>
  </g>
</svg>

<svg xmlns="http://www.w3.org/2000/svg" width="16" height="16" viewBox="0 0 16 16"><rect id="frame" width="16" height="16" fill="none"/><g fill="#AFB1B3" fill-rule="evenodd"><path d="M2 6h4v4H2V6zm1 1v2h2V7H3zm7-1h4v4h-4V6zm1 1v2h2V7h-2z"/><path d="M12.958 11.002h.043v4.184l-1.38-1.38A5 5 0 0 1 3.04 11h1.52a3.501 3.501 0 0 0 6 1.744l-1.742-1.742h2.623V11h1.519v.002z"/><path d="M3.084 4.858H3.04V.674l1.38 1.38a5 5 0 0 1 8.582 2.806h-1.52a3.501 3.501 0 0 0-6-1.744l1.742 1.742H4.602v.002H3.083v-.002z"/></g></svg>
